X:1
T:Melodie
T:Melodie
T:R.Gliere. Op.35,No1.
C:R.Gliere
%%score ( 1 2 ) { ( 3 6 ) | ( 4 5 ) }
L:1/8
Q:1/4=72
M:3/4
K:D
V:1 treble nm="Flûte."
V:2 treble 
V:3 treble nm="Piano"
V:6 treble 
V:4 treble 
V:5 treble 
V:1
"^Andante."!p! (f2 a2 b2) | (g3 f g2) | (e4 f2) | (a6- | a2 g2 f2) | (e3 d e2) | (f4 c2) | %7
{/d} (c4[Q:1/4=64] !tenuto!.B2) |[Q:1/4=72] (B2 d2 e2) | (c3 B c2) |"_cresc." (d2 f2 ^g2) | %11
 (a4 !tenuto!.b2) |!mf! (c'2 b2 a2) | (e3 d c2) |!>(! (c3 B c2!>)! | !breath!A4) A2- | %16
!p! A(DFAdf) | e6- | e(DG_Bc_b |[Q:1/4=70] a)(c[Q:1/4=68]de[Q:1/4=66]fa) |[Q:1/4=72]!mf! Td'6- | %21
 d'!mp!(c'd'a'g')(_b | f')(f^g^abc'- | %23
[Q:1/4=70] c')(f[Q:1/4=68]^g^a[Q:1/4=66]b[Q:1/4=56]!tenuto!.d') |[Q:1/4=72] (=f'4 a2) | %25
"_cresc." e'(^ga^abe-) | e(f^gac'a' | ^g')(^d'e'^e'f'b | =d') f'2 e'2 (d' | %29
[Q:1/4=60] !tenuto!.c')[Q:1/4=72](^ef^ga)c- |"_dim." c A2 ^E2 C- | %31
[Q:1/4=68] !tenuto!.C(^D[Q:1/4=64]EF[Q:1/4=60]A[Q:1/4=56]^B) |!mf![Q:1/4=72] (c2 ^g2 =g2) | %33
 (f3 ^g f2) | (e2 ^A2 B2- |[Q:1/4=70] !tenuto!.B)(c[Q:1/4=68]^de[Q:1/4=66]^gb) | %36
[Q:1/4=72] (=c'2 g'2 _g'2 | =f'3 =g' f'2) | (_e'2 a2 _b2-) | %39
[Q:1/4=68] !tenuto!.b(=c[Q:1/4=64]d_e[Q:1/4=60]G_A) |!p![Q:1/4=72] (_B2 =c2 _d2) | (_e3 =f e2) | %42
 (_d4 =c2) |[Q:1/4=70]{/_e} (_d3 =c _B2) |[Q:1/4=72] z6 | z6 | z6 |[Q:1/4=70] z6 | %48
!mf![Q:1/4=72] (e2 f2 g2) | (a3 b a2- | %50
[Q:1/4=70] a)!tenuto!g' !tenuto!f'!tenuto!e' !tenuto!c'!tenuto!b |[Q:1/4=72] (a3 b !tenuto!.a2) | %52
!<(! (g2 a2 b2)!<)! |!f! (c'3 d' c'2) |"_cresc." (b2 c'2 d'2) | f'7/2 x/ f'2- | f'A df (3ac'd' | %57
[Q:1/4=68] f'4[Q:1/4=60] f'2-[Q:1/4=64] | %58
!ff![Q:1/4=72] (3!tenuto!.f'!>!e'!>!f' (3!>!a'!>!g'!>!e' (3!>!d'!>!e'!>!d' | %59
"_accelerando" (3_bge[Q:1/4=78] (3fef[Q:1/4=88] (3age | %60
[Q:1/4=98] (3ded[Q:1/4=108] (3_BGE[Q:1/4=80] (3:2:6F/E/F/A/G/D/ | %61
[Q:1/4=88] (6:4:6(E/G/_B/d/)(G/B/ (6:4:6d/e/)(B/d/e/g/) (6:4:6(d/e/g/_b/)(e/g/ (6:4:6b/d'/)(g/b/d'/e'/) | %62
[Q:1/4=80]!<(! (6:4:6(_b/d'/e'/)[Q:1/4=70](d'/e'/g'/)[Q:1/4=40] ._b'!<)! z[Q:1/4=50] (TG6-[Q:1/4=60][Q:1/4=70][Q:1/4=80][Q:1/4=90][Q:1/4=70] G/4F/4G/4_B/4d/4e/4g/4_b/4[Q:1/4=80](9:8:9d'/4e'/4d'/4b/4g/4e/4d/4B/4G/4)[Q:1/4=60]"^" (T_B3/2[Q:1/4=70](3A/4B/4^c/4)[Q:1/4=60]"_dim." (Td3/2[Q:1/4=70](3c/4d/4f/4)[Q:1/4=60] (Tg3/2[Q:1/4=60](3f/4g/4a/4)[Q:1/4=40]!mf!!>(! !fermata!_b4-[Q:1/4=80][Q:1/4=80][Q:1/4=80]!>)! | %63
[Q:1/4=72] !breath!b3!>(! (_b[Q:1/4=64] a[Q:1/4=60]g)!>)! |!p![Q:1/4=64] (f2[Q:1/4=72] a2 b2) | %65
 (g3 f g2) | (e4 f2) | (a6- | a2 g2 f2) | (e3 d e2) | (f4 c2) |{/d} (c4 !tenuto!.B2) | (B2 d2 e2) | %73
 (c3 B c2) |"_cresc." (d2 f2 ^g2) | (a4 !tenuto!.b2) |!mf! (c'2 b2 a2) | (e3 d c2) | %78
"_dim." (c3 B c2) |[Q:1/4=68]!>(! A2-[Q:1/4=64] A z[Q:1/4=60] A2-!>)![Q:1/4=50][Q:1/4=80] | %80
[Q:1/4=68]!p! (3A((DE) (3F^EF (3FGA | (3B)(EG (3B^AB- (3Bcd) | (3(efg (3bc'b (3_b=c'b) | %83
 (3(afc[Q:1/4=64] (3def[Q:1/4=60] (3af[Q:1/4=56]a) |[Q:1/4=68] (Td'6 | %85
[Q:1/4=50] (3!tenuto!.d')[Q:1/4=68](c'd' (3a'g'd' (3_bga) | (3(^a^^ga- (3a=bc' (3f'c'e'- | %87
[Q:1/4=66] (3!tenuto!.e')(f^g[Q:1/4=64] (3^abc'[Q:1/4=62] (3d'b[Q:1/4=56]f) | %88
[Q:1/4=68] (3(agd (3B^AB- (3Bcd | (3e)(AB (3cde (3afe |"_cresc." (3!tenuto!.^d)(B^B (3cBc (3dfb) | %91
[Q:1/4=66] (3(f'e'b[Q:1/4=64] (3gef[Q:1/4=62] (3gab) |!f![Q:1/4=68] (3(d'c'b- (3bfc (3def) | %93
 (3(c'ba (3fAd (3fga) |"_dim." (3(_bag-[Q:1/4=64] (3gec[Q:1/4=60] (3_BAG | %95
[Q:1/4=50]!>(! (3!tenuto!.F)[Q:1/4=62](DE[Q:1/4=56] (3F^GA[Q:1/4=50] (3c[Q:1/4=46]d[Q:1/4=42]e)!>)! | %96
!p![Q:1/4=60]"^tranquillo" (f2 a2 b2[Q:1/4=72] | g3 f g2) | (e2 g2 a2) | %99
[Q:1/4=70] f6-[Q:1/4=68][Q:1/4=66] |[Q:1/4=72] !tenuto!.f2 (^d2 g2) | (e3 =d e2- | e2) (c2 f2) | %103
!>(! d4- d!>)! z |!p! (F2 A2 B2 | G3) (F G2) | (E2 G2 A2 |[Q:1/4=68] F6-)[Q:1/4=64][Q:1/4=60] | %108
[Q:1/4=72] !tenuto!.F2 (^D2 G2) | (E3 D E2- | E2)[Q:1/4=60] (C2 F2) |[Q:1/4=72] D6- | D(EDEG_B) | %113
[Q:1/4=70] d6-[Q:1/4=68][Q:1/4=66] |[Q:1/4=64] !tenuto!.d(e[Q:1/4=60]de[Q:1/4=50]g[Q:1/4=40]_b) | %115
[Q:1/4=50]!>(! d'6- | d'6-!>)! | d'2 z2 z2 |] %118
V:2
 x6 | x6 | x6 | x6 | x6 | x6 | x6 | x6 | x6 | x6 | x6 | x6 | x6 | x6 | x6 | x6 | x6 | x6 | x6 | %19
 x6 | (6:4:6x/x/x/x/x/x/ !///-!x2 x2 | x3/4 x/4 x x4 | x6 | x6 | x6 | x6 | x6 | x6 | x6 | x6 | x6 | %31
 x6 | x6 | x6 | x6 | x6 | x6 | x6 | x6 | x6 | x6 | x6 | x6 | x6 | x6 | x6 | x6 | x6 | x6 | x6 | %50
 x6 | x6 | x6 | x6 | x6 | x6 | x6 | x6 | x6 | x6 | x6 | x8 | %62
x4(6:4:6x/x/x/x/x/x/!///-!x3/2x3/2(3x/x/x/- x2 x2 (7:6:7x/4x/4x/4x/4x/4x/4x/4 x/ (7:6:7x/4x/4x/4x/4x/4x/4x/4 x/ (7:6:7x/4x/4x/4x/4x/4x/4x/4 x/ x4 | %63
 x6 | x6 | x6 | x6 | x6 | x6 | x6 | x6 | x6 | x6 | x6 | x6 | x6 | x6 | x6 | x6 | x6 | x6 | x6 | %82
 x6 | x6 | (6:4:6x/x/x/x/x/x/ !///-!x x !///-!x x | x6 | x6 | x6 | x6 | x6 | x6 | x6 | x6 | x6 | %94
 x6 | x6 | x6 | x6 | x6 | x6 | x6 | x6 | x6 | x6 | x6 | x6 | x6 | x6 | x6 | x6 | x6 | x6 | x6 | %113
 x6 | x6 | x6 | x6 | x6 |] %118
V:3
"^Andante."!p! ([df]6 | [Be]6) | [_Bc]6 | (e2 d2 c2) | B6 | _B6- | ^A6 | (^A4 B2) | B6 | %9
 (c2 f2 e2) |"_cresc." d6 | (d2 c2 f2) | [fa]6 | [ce]6 |!>(! [E^G]6!>)! | [EA]4 z2 | %16
!p! (f2 a2 b2) | (g3 f g2) | (e4 f2) | (a6 | a2 g2 f2) | (e3 d e2) | (f4 c2) |{/d} (c4 B2) | %24
 (A2 d2 e2) |"_cresc." (c4 B2) | (c2 e2 f2) | (^g4 f2) | (a2 ^g2 f2) | (c3 B A2) | %30
"_dim." (A3 ^G A2) | F6 |!mf! (c6 | [D=c]6) | [EB]6 | [^GB]6 | (=c'6 | _c'6) | [_e_b]6 | [g_b]6 | %40
!p! [_EG_B][EGB][EGB][EGB][EGB][EGB] | [_E_G_B][EGB][EGB][EGB][EGB][EGB] | %42
 [_E=FA][EFA][EFA][EFA][EFA][EFA] | [_D=F_B][DFB][_E_GB][EGA][DFB][DFB] |"_cresc." (^c2 ^d2 e2) | %45
 (f3 ^g f2) | (e4 ^d2) |{/f} (e3 ^d c2) |!mf! [Ace][Ace][Acf][Acf][Ace][Ace] | %49
 [A^B^d][ABd][ABd][ABd][ABd][ABd] | [Aca][Aca][Aca][Aca][cg][cg] | [=cf][cf][cf][cf][cf][cf] | %52
!<(! [GBf][GBf][GBf][GBf][GB^e][GBe]!<)! | [^GB^e][GBe][GBe][GBe][=G^A=e][GAe] | %54
"_cresc." [FBe][FBe][FBe][FBe][FBd][FBd] | d6 | d6 | d6 |!ff! [E_Bd]6- | [EBd]6- | [EBd] z z4 | %61
 z8 | x4 x8 !fermata!z8 x4 |!p! F4- FE | D z[I:staff +1] (3A,[I:staff -1]DF (3Adf | %65
 x2 (3EGB (3eBg | x2[I:staff +1] (3C[I:staff -1]EG (3_BGc | (e2 d2 c2) | B6 | x2 (3DEG (3_BGe | %70
 x2 (3EF^A (3ecf | z2 (3(EFc (3DFB) | x2 (3(B,EG (3BGe) | x2 (3(CEG (3cGe) | %74
"_cresc." x2 (3(DFB (3dBf) | z2 (3(CFA (3FAf) |!mf! x2 (3FAc (3fca | x2 (3EAc (3eca | %78
 x2"_dim." (3E^GB (3cGe | x2 (3EAe (3A^G=G | %80
!p! (!arpeggio![FAdf]2 !arpeggio![Adfa]2 !arpeggio![Bdfb]2) | [Be]6 | ([Ee]4 [Ff]2) | %83
 (e2 d2 c3/2) (3x/4x/4x/4 | (!arpeggio![ABda]2 !arpeggio![GBdg]2 !arpeggio![FBdf]2) | %85
 [Ee]3 [Dd] [Ee]2 | [F^Acf]4 [CFAc]2 | ([Cc]4 [B,B]2) | ([B,DGB]2 [DGBd]2 [EGBe]2) | %89
 ([Cc]3 [B,B] [Cc]2) |"_cresc." ([^DGA^d]2 [Ee]2 [Ff]2) | ([Gceg]4 [Bb]2) | %92
!f! ([f^gd'f']2 [egbe']2 [dgbd']2) | ([Adfa]3 [Gg] [Fdf]2) |"_dim." ([Ff]3 [Ee] [Ff]2) | [DFAd]6 | %96
!p!"^tranquillo" x2[I:staff +1] F[I:staff -1]Adf | x2[I:staff +1] G[I:staff -1]Beg | %98
 x2[I:staff +1] G[I:staff -1]_Bce | z2 z2 df | ^d6 | e3 d- d2 | c3 A cf- | f(f d A2 G | %104
!p! [^DF]6) | [EG]6 | [^CE]6 | [DF]6 | [^DB]6 | ([B,B]4 [_B,_B]2) | ([A,CA]6 |!pp! [A,DA]6) | D6 | %113
 [Fd]6 | [_Bd]6 |!>(! !tenuto![_Bde]6 | !tenuto![df]6-!>)! | [df]2 z2 z2 |] %118
V:4
!ped! A6!ped-up! |!ped! G6!ped-up! |!ped! [D-G]6!ped-up! |!ped! [DF]6!ped-up! | %4
!ped! [DG]6-!ped-up! |!ped! [DG]6!ped-up! |!ped! (F4 E2)!ped-up! |!ped! (E4 D2)!ped-up! | %8
!ped! [G,E]6!ped-up! |!ped! (E2 A2 G2)!ped-up! |!ped! F6!ped-up! |!ped! [FA]6!ped-up! | %12
!ped! [^DAc]6!ped-up! |!ped! [EA]6!ped-up! |!ped! [E,D]6!ped-up! |!ped! [A,C]4!ped-up! z2 | %16
!ped! [D-A]6!ped-up! |!ped! [DG]6-!ped-up! |!ped! [DG_B]6!ped-up! |!ped! [D-FA]6!ped-up! | %20
!ped! [DG]6-!ped-up! |!ped! [DG]6!ped-up! |!ped! (F4 E2)!ped-up! |!ped! (E4 D2)!ped-up! | %24
[K:bass]!ped! [B,D]6!ped-up! |!ped! (E2 ^D2 =D2)!ped-up! |!ped! [A,C]6!ped-up! | %27
!ped! [B,A]6!ped-up! |[K:treble]!ped! (F2 ^G2 A2)!ped-up! |!ped! [CFA]6!ped-up! | %30
[K:bass]!ped! [C,B,]6!ped-up! |!ped! [F,A,]6!ped-up! |!ped! z2 A,B,, B,,2-!ped-up! | %33
!ped! [B,,A,]6!ped-up! |!ped! ^G,6!ped-up! |!ped! (F3 E B,2)!ped-up! |!ped! z2 _AD x2!ped-up! | %37
!ped! A6!ped-up! |!ped! [_B,G](_E,B,G_B[I:staff -1]g)!ped-up! | %39
[I:staff +1][K:treble]!ped! (=f3 _e _B2)!ped-up! |!ped! (C6!ped-up! |!ped! =C6)!ped-up! | %42
[K:bass]!ped! =F,4 =F,,2!ped-up! |!ped! _B,,2!ped-up!!ped! =F,2!ped-up!!ped! _B,2!ped-up! | %44
!ped! (E6!ped-up! |!ped! ^D6)!ped-up! |!ped! [^G,F]4 ^G,,2!ped-up! | %47
!ped! C,2!ped-up!!ped! ^G,2!ped-up!!ped! C2!ped-up! |[K:treble]!ped! (=G6!ped-up! | %49
!ped! F6)!ped-up! |!ped! (E2 F2!ped-up!!ped! G2)!ped-up! |!ped! (A3 B A2)!ped-up! | %52
!ped! (=D6!ped-up! |!ped! C4)!ped-up!!ped! F,2!ped-up! |[K:bass]!ped! B,6!ped-up! | %55
!ped! _B,2 _B,,2 B,2!ped-up! |!ped! A,2 A,,2 A,2!ped-up! |!ped! ^G,2 ^G,,2 G,2!ped-up! | %58
!ped! [=G,,=G,]6- | [G,,G,]6- | [G,,G,]!ped-up! z z4 | z8 | x4 x8 !fermata!z8 x4 | %63
!ped! [A,,,A,,]6!ped-up! |!ped! (3D,,D,F, x4!ped-up! |!ped! (3D,G,B, x4!ped-up! | %66
!ped! (3D,G,_B, x4!ped-up! |!ped! (3D,A,D (3FDF x2!ped-up! |!ped! (3D,G,B, x4!ped-up! | %69
!ped! (3D,G,_B, x2 x2!ped-up! |!ped! (3C,F,^A, x2 x2!ped-up! |!ped! (3(B,,F,^A,- A,2 B,2)!ped-up! | %72
!ped! (3(G,,E,B,) x2 x2!ped-up! |!ped! (3(A,,G,C) x2 x2!ped-up! |!ped! (3(B,,F,D) x2 x2!ped-up! | %75
!ped! (3^B,,F,-A,- [F,A,]4!ped-up! |!ped! (3^D,A,C x4!ped-up! |!ped! (3E,A,C x4!ped-up! | %78
!ped! (3E,^G,D x4!ped-up! |!ped! (3A,,!>(!E,C x4!ped-up!!ped!!>)! | %80
 D,,"^dolce" A,,2 F,2!ped-up!!ped! A,!ped-up!!ped! | D,, B,,2 G,2 B,!ped!!ped-up! | %82
 D,, A,,2 G,2 C |!ped! D,, A,,2 F,2 D!ped-up!!ped!!ped-up! | %84
 D, G,2!ped-up!!ped! B,2!ped-up!!ped! D!ped-up!!ped! | D, G,2 _B,2 D | %86
!ped! C, ^A,2 E2 F,,!ped-up! |!ped! B,,, D,2 F,2 D!ped-up! |!ped! G,, D,2 B,2 E,!ped-up! | %89
!ped! A,, A,2 E,2 E!ped-up! |!ped! F,, B,2 A,2 ^D!ped-up! | %91
!ped! E,, G,2 B,2 E!ped-up!!ped!!ped-up! | !arpeggio!^G, B,2 ^G2 B |!ped! A,, F,2 D2 A!ped-up! | %94
!ped! A,,, G,2 _B,2 C!ped-up! |!ped! D,, A,,2 F,2 A,!ped-up! |[K:treble]!ped! DF- x4!ped-up! | %97
!ped! DG- x4!ped-up! |!ped! DG- x4!ped-up! |!ped! DF-!ped-up!!ped! FA-!ped-up!!ped! [FA]2!ped-up! | %100
!ped! B,(A A4)!ped-up! |!ped! G[GB]- [GB]2!ped-up!!ped! x2!ped-up! |!ped! CG- G2 x2!ped-up! | %103
!ped! F4 z2!ped-up! |[K:bass]!ped! =C6!ped-up! |!ped! B,6!ped-up! |!ped! _B,6!ped-up! | %107
!ped! A,6!ped-up! |!ped! A,6!ped-up! |!ped! G,6!ped-up! |!ped! G,6!ped-up! |!ped! F,6!ped-up! | %112
!ped! _B,6!ped-up! |!ped! ([D,D]A,D[I:staff -1]FAd)!ped-up! | %114
[I:staff +1][K:treble]!ped! G6!ped-up! |!ped! G6!ped-up! |!ped! [DA]6-!ped-up! | [DA]2 z2 z2 |] %118
V:5
 D6- | D6- | x6 | x6 | x6 | x6 | (C2 F,4) | B,6 | x6 | A,6 | B,6 | (^B,2 C2 D2) | x6 | x6 | x6 | %15
 x6 | x6 | x6 | x6 | x6 | x6 | x6 | C2 F,4 | B,6 |[K:bass] x6 | E,6 | x6 | x6 |[K:treble] B,6 | %29
 x6 |[K:bass] x6 | x6 | x6 | x6 | B,,(E,,B,,^G,B,^G) | x6 | _B,6- | B,6 | x6 |[K:treble] x6 | x6 | %41
 x6 |[K:bass] x6 | x6 | x6 | x6 | x6 | x6 |[K:treble] x6 | x6 | (E6 | ^D6) | x6 | x6 |[K:bass] x6 | %55
 x6 | x6 | x6 | x6 | x6 | x6 | x8 | x24 | x6 | x6 | x6 | x6 | x6 | x6 | x6 | x6 | x6 | x6 | x6 | %74
 x6 | (^B,,2 C,2 D,2) | ^D,6 | x6 | x6 | x6 | x6 | x6 | x6 | x6 | x6 | x6 | x6 | x6 | x6 | x6 | %90
 x6 | x4 x7/4!f! x/4- | E,,6 | x6 | x6 | x6 |[K:treble] D6 | D6 | D6 | !tenuto!D2 !tenuto!C2 =C2 | %100
 B,6 | E6 | A,2 G4 | D6 |[K:bass] =D,6- | D,6- | D,6- | !tenuto!D,2 !tenuto!C,2 !tenuto!=C,2 | %108
 B,,6 | E,,6 | A,,6 | (D,,A,,D,F,A,D) | G,6 | x6 |[K:treble] x6 | x6 | x6 | x6 |] %118
V:6
 x6 | x6 | x6 | A6 | x6 | x6 | x6 | F6 | x6 | x6 | x6 | x6 | x6 | x6 | x6 | x6 | [df]6 | [Be]6 | %18
 c6 | (e2 d2 c2) | B6 | _B6 | ^A6 | F6 | =F6 | ^G6 | A6 | ^d6 | =d6 | x6 | ^E6 | C6 | %32
 c^D x2[I:staff +1] A,-[I:staff -1]D- | x6 | x6 | x6 | =c'd x2[I:staff +1] _A-[I:staff -1]d- | d6 | %38
 x6 | x6 | x6 | x6 | x6 | x6 | [F^A][FA][FA][FA][FA][FA] | [=Ac][Ac][Ac][Ac][Ac][Ac] | %46
 [^G^B][GB][GB][GB][GB][GB] | [^Gc][Gc][FAc][FA^B][EG][EG] | x6 | x6 | x6 | x6 | x6 | x6 | x6 | %55
 [D^G][DG][DG][DG][DG][DG] | [DFA][DFA][DFA][DFA][DFA][DFA] | [DF_B][DFB][DFB][DFB][DFB][DFB] | %58
 x6 | x6 | x6 | x8 | x24 | [G,C]6 | x6 | x6 | x6 | x4 (3AFA | x2 (3DEG (3BGd | x6 | x6 | x6 | x6 | %73
 x6 | x6 | x6 | x6 | x6 | x6 | x4 (3:2:5x2 x/ (3x/4x/4x/4 | %80
 x3/2 (3x/4x/4x/4 x3/2 (3x/4x/4x/4 x3/2 (3x/4x/4x/4 | (!arpeggio![Gg]3 [Ff] [Gg]3/2) (3x/4x/4x/4 | %82
 !arpeggio![Gc]6 | [Afa]6 | x3/2 (3x/4x/4x/4 x3/2 (3x/4x/4x/4 x3/2 (3x/4x/4x/4 | !arpeggio![G_B]6 | %86
 x6 | F6 | x6 | [EA]6 | x6 | x6 | x6 | x6 | [_Bc]6 | x6 | x6 | x6 | x6 | x6 | %100
 x2[I:staff +1] A[I:staff -1](B^dg) | x3 d _Be | x4 c2 | A4 x2 | x6 | x6 | x6 | x6 | x6 | E6 | x6 | %111
 x6 | x6 | x6 | x6 | x6 | x6 | x6 |] %118

